X: 3057
T: DONALD TO YOUR SOALS
Q:"Strathspey."
R: Strathspey.
%R:strathspey, shottish
B: James Kerr "Merry Melodies" v.3 p.8 #57
Z: 2016 John Chambers <jc:trillian.mit.edu>
M: C
L: 1/16
K: Ador
|:\
EA3A3G A3BA3G | EA3 A3G A4 (A2G2) |\
EA3A3G A3Bc3e | d3cB3A G6 A2 :|
|:\
ce3e3A dcBA eA3 | ce3e3A c4 (A2B2) |\
ce3e3A cdef g2e2 | edcB dcBA G6 B2 :|

%%sep 1 1 500
%%sep 1 1 500

